X: 4204
T: The COUNTY BALL
R: Jig
%R: jig
B: James Kerr "Merry Melodies" v.4 p.23 #204
Z: 2016 John Chambers <jc:trillian.mit.edu>
M: 6/8
L: 1/8
K: D
|:\
vd2vA ABA | F2G A2A | d2d ede | fgf ecA |\
d2A ABA | F2G A2A | def gec | d3- d2A :|
|:\
d2e f2g | a2f def | gag fgf | efd cBA |\
d2e f2g | a2f def | g2e f2d | e3- e2A :|

%%sep 1 1 500
%%sep 1 1 500

